icons/svg/shields/h_water_tower_shield.svg

<?xml version="1.0" encoding="UTF-8" standalone="no"?>
<!-- Created with Inkscape (http://www.inkscape.org/) -->

<svg
   xmlns:dc="http://purl.org/dc/elements/1.1/"
   xmlns:cc="http://creativecommons.org/ns#"
   xmlns:rdf="http://www.w3.org/1999/02/22-rdf-syntax-ns#"
   xmlns:svg="http://www.w3.org/2000/svg"
   xmlns="http://www.w3.org/2000/svg"
   xmlns:sodipodi="http://sodipodi.sourceforge.net/DTD/sodipodi-0.dtd"
   xmlns:inkscape="http://www.inkscape.org/namespaces/inkscape"
   version="1.0"
   width="16"
   height="16"
   id="svg2"
   sodipodi:version="0.32"
   inkscape:version="0.91 r13725"
   sodipodi:docname="h_water_tower_shield.svg"
   inkscape:output_extension="org.inkscape.output.svg.inkscape">
  <metadata
     id="metadata10">
    <rdf:RDF>
      <cc:Work
         rdf:about="">
        <dc:format>image/svg+xml</dc:format>
        <dc:type
           rdf:resource="http://purl.org/dc/dcmitype/StillImage" />
        <cc:license
           rdf:resource="http://web.resource.org/cc/PublicDomain" />
        <dc:language>en</dc:language>
        <dc:title />
      </cc:Work>
    </rdf:RDF>
  </metadata>
  <sodipodi:namedview
     inkscape:window-height="1006"
     inkscape:window-width="1920"
     inkscape:pageshadow="2"
     inkscape:pageopacity="0.0"
     guidetolerance="10.0"
     gridtolerance="10.0"
     objecttolerance="10.0"
     borderopacity="1.0"
     bordercolor="#666666"
     pagecolor="#ffffff"
     id="base"
     showgrid="false"
     inkscape:zoom="22.627417"
     inkscape:cx="7.9652556"
     inkscape:cy="8.2078989"
     inkscape:window-x="1920"
     inkscape:window-y="0"
     inkscape:current-layer="svg2"
     inkscape:window-maximized="1" />
  <defs
     id="defs4">
    <inkscape:perspective
       sodipodi:type="inkscape:persp3d"
       inkscape:vp_x="0 : 290 : 1"
       inkscape:vp_y="0 : 1000 : 0"
       inkscape:vp_z="580 : 290 : 1"
       inkscape:persp3d-origin="290 : 193.33333 : 1"
       id="perspective12" />
    <style
       type="text/css"
       id="style6">
   
    .fil0 {fill:#EF7900}
   
  </style>
    <inkscape:perspective
       id="perspective6807"
       inkscape:persp3d-origin="29.116032 : 19.410688 : 1"
       inkscape:vp_z="58.232063 : 29.116032 : 1"
       inkscape:vp_y="0 : 1000 : 0"
       inkscape:vp_x="0 : 29.116032 : 1"
       sodipodi:type="inkscape:persp3d" />
    <inkscape:perspective
       id="perspective6954"
       inkscape:persp3d-origin="290 : 193.33333 : 1"
       inkscape:vp_z="580 : 290 : 1"
       inkscape:vp_y="0 : 1000 : 0"
       inkscape:vp_x="0 : 290 : 1"
       sodipodi:type="inkscape:persp3d" />
    <inkscape:perspective
       id="perspective2541"
       inkscape:persp3d-origin="240 : 160 : 1"
       inkscape:vp_z="480 : 240 : 1"
       inkscape:vp_y="0 : 1000 : 0"
       inkscape:vp_x="0 : 240 : 1"
       sodipodi:type="inkscape:persp3d" />
    <inkscape:perspective
       id="perspective2750"
       inkscape:persp3d-origin="215 : 143.33333 : 1"
       inkscape:vp_z="430 : 215 : 1"
       inkscape:vp_y="0 : 1000 : 0"
       inkscape:vp_x="0 : 215 : 1"
       sodipodi:type="inkscape:persp3d" />
    <inkscape:perspective
       id="perspective3730"
       inkscape:persp3d-origin="88.929146 : 101.19778 : 1"
       inkscape:vp_z="177.85829 : 151.79668 : 1"
       inkscape:vp_y="0 : 1000 : 0"
       inkscape:vp_x="0 : 151.79668 : 1"
       sodipodi:type="inkscape:persp3d" />
  </defs>
  <path
     style="opacity:0.806;fill:#ebe7e4;fill-opacity:1;fill-rule:evenodd"
     d="M 3.8399721,1.8543105 C 3.4101692,1.8544478 3.0617794,2.2028376 3.061642,2.6326405 l 0,0.2410313 0,4.2582187 c 2.418e-4,0.036417 0.00304,0.072773 0.00837,0.1087989 0.015189,0.1068079 0.052536,0.2096461 0.1004297,0.3063105 0.023423,0.052197 0.045121,0.1048073 0.076996,0.1523184 0.016508,0.024429 0.034391,0.0479 0.053562,0.070301 0.00817,0.0096 0.018262,0.017495 0.026781,0.026781 l 0.026781,0.026781 c 0.020487,0.020726 0.039737,0.043045 0.061932,0.061932 0.00929,0.00852 0.017184,0.018614 0.026781,0.026781 0.00929,0.00852 0.017184,0.018614 0.026781,0.026781 0.0224,0.019171 0.045872,0.037054 0.070301,0.053562 0.071475,0.047952 0.1480682,0.087085 0.2293145,0.1154942 0.069097,0.023941 0.1412225,0.038028 0.21425,0.041846 0.038346,0.00218 0.075473,0.00218 0.1138202,0 0.00903,-2.716e-4 0.017759,5.13e-4 0.026781,0 l -0.043519,0.00167 1.7206954,0 C 5.7033067,8.5644166 5.57353,9.0507969 5.3999799,9.6041347 5.0083116,10.852909 4.414069,12.253512 3.7696714,13.068959 c -0.0042,0.0048 -0.00928,0.0086 -0.013391,0.01339 -0.019121,0.02186 -0.037002,0.04477 -0.053562,0.06863 -0.048397,0.07194 -0.086975,0.150775 -0.1154942,0.232662 -0.023635,0.06803 -0.037718,0.139004 -0.041846,0.210902 -0.00222,0.03863 -0.00222,0.07854 0,0.117168 l 0.010043,-0.1791 c -0.019468,0.111544 -0.018345,0.226381 0,0.338114 0.018211,0.116233 0.055329,0.230067 0.1121464,0.333091 l 0.00502,0.01004 c 0.1260477,0.21999 0.3385255,0.388968 0.5808183,0.463651 l -0.2058816,-0.09709 c 0.071947,0.04839 0.1507761,0.08698 0.2326621,0.115495 0.068027,0.02364 0.1390046,0.03772 0.2109023,0.04185 0.038629,0.0022 0.078539,0.0022 0.117168,0 0.021261,-8.04e-4 0.042482,-0.0025 0.063606,-0.0051 0.108263,-0.0152 0.2118586,-0.05493 0.3096582,-0.103778 0.051208,-0.02322 0.1039933,-0.04394 0.1506446,-0.07532 0.023856,-0.01656 0.046768,-0.03444 0.068627,-0.05356 0.00968,-0.0082 0.017423,-0.0182 0.026781,-0.02678 l 0.088713,-0.08871 c 0.00858,-0.0094 0.018562,-0.01711 0.026781,-0.02678 0.00569,-0.0066 0.011271,-0.0133 0.016738,-0.02009 0.1512393,-0.190787 0.2736221,-0.385806 0.3950234,-0.57747 l 2.1542168,-1.610223 2.0588089,1.553313 c 0.1392159,0.218235 0.2824569,0.435366 0.4402159,0.63438 0.0055,0.0068 0.01105,0.01348 0.01674,0.02009 0.0082,0.0097 0.0182,0.01742 0.02678,0.02678 0.03545,0.04173 0.07377,0.08004 0.115493,0.115493 0.02186,0.01912 0.04477,0.037 0.06863,0.05356 0.01658,0.01116 0.03634,0.01663 0.05356,0.02678 0.07195,0.04839 0.150776,0.08697 0.232662,0.115494 0.06803,0.02364 0.139005,0.03772 0.210903,0.04185 0.03862,0.0022 0.07853,0.0022 0.117167,0 0.02126,-8.04e-4 0.04248,-0.0025 0.06361,-0.0051 0.108264,-0.0152 0.211859,-0.05493 0.309659,-0.103777 0.05121,-0.02322 0.103994,-0.04394 0.150644,-0.07532 0.02386,-0.01656 0.04677,-0.03444 0.06863,-0.05356 0.02661,-0.02261 0.04952,-0.04841 0.07365,-0.07365 0.08597,-0.08622 0.152478,-0.190302 0.202533,-0.301289 0.04538,-0.09417 0.08422,-0.192743 0.09876,-0.296268 0.005,-0.03773 0.0073,-0.07577 0.0067,-0.11382 -9.43e-4,-0.151119 -0.04254,-0.299386 -0.108799,-0.435196 -0.02366,-0.05293 -0.04464,-0.107563 -0.07699,-0.155665 -0.01164,-0.01665 -0.02392,-0.03285 -0.03683,-0.04854 C 11.350182,12.253886 10.730635,10.845992 10.341116,9.6040678 10.172579,9.0667181 10.057979,8.5802043 9.9611562,8.151185 l 1.8328418,0 0.0067,0 c 0.151023,-0.00125 0.299568,-0.042379 0.435211,-0.108732 0.0522,-0.023423 0.104807,-0.045122 0.152318,-0.076996 0.02443,-0.016508 0.0479,-0.034391 0.0703,-0.053562 0.04139,-0.03522 0.08027,-0.074104 0.115493,-0.1154941 0.01917,-0.0224 0.03706,-0.045872 0.05356,-0.0703 0.01118,-0.01667 0.01661,-0.036257 0.02678,-0.053562 l 0.08871,-0.1757521 c 0.0077,-0.018522 0.02016,-0.034613 0.02678,-0.053562 0.02394,-0.069097 0.03802,-0.1412225 0.04185,-0.21425 5.13e-4,-0.00902 -2.72e-4,-0.017748 0,-0.026781 l 0,-0.087039 c -2.72e-4,-0.00903 5.13e-4,-0.017759 0,-0.026781 l 0.0017,0.043519 0,-4.2582188 0,-0.2410312 C 12.813227,2.2028376 12.464837,1.8544479 12.035035,1.8543105 l -0.482063,0 C 11.206765,1.8549507 10.902569,2.0841208 10.806445,2.4167167 10.648916,2.3678724 10.471652,2.32633 10.267472,2.32633 l -0.0033,0 C 9.9620296,2.328467 9.7218331,2.4274632 9.5293139,2.5004081 9.3384033,2.5727437 9.1940791,2.6166753 9.109183,2.6192499 9.0154301,2.6185974 8.8688994,2.5789091 8.680683,2.5137987 8.4906435,2.4480577 8.261067,2.3577222 7.9726537,2.3531112 l -0.00167,0 C 7.6814524,2.3470313 7.4475058,2.4330788 7.2646245,2.4953867 7.081962,2.5576197 6.9485116,2.5941298 6.8729487,2.5941425 6.8057458,2.592518 6.6899122,2.5554027 6.5214447,2.4870175 6.352243,2.4183342 6.1282477,2.3170649 5.8351752,2.32633 l -0.00335,0.00167 C 5.5400865,2.3393059 5.3133657,2.440276 5.1204506,2.5171464 c -0.013083,0.00521 -0.015696,0.00339 -0.028455,0.00837 C 5.0384785,2.141162 4.7100956,1.8548979 4.3220346,1.8543105 Z"
     id="path3860"
     inkscape:connector-curvature="0"
     sodipodi:nodetypes="ccccccccccccccccccccsccccsccccccccscccccccccccccccccccsccccccccccccscccccccccccccccccccccscscsccscsccsccc" />
</svg>

<svg width="16" height="16" viewBox="0 0 16 16" fill="none" xmlns="http://www.w3.org/2000/svg">
<path opacity="0.806" fill-rule="evenodd" clip-rule="evenodd" d="M3.83998 1.85431C3.41017 1.85445 3.06178 2.20284 3.06165 2.63264V2.87367V7.13189C3.06189 7.16831 3.06469 7.20466 3.07002 7.24069C3.0852 7.3475 3.12255 7.45033 3.17045 7.547C3.19387 7.5992 3.21557 7.65181 3.24744 7.69932C3.26395 7.72375 3.28183 7.74722 3.301 7.76962C3.30917 7.77922 3.31927 7.78711 3.32778 7.7964L3.35457 7.82318C3.37505 7.84391 3.3943 7.86622 3.4165 7.88511C3.42579 7.89363 3.43368 7.90373 3.44328 7.91189C3.45257 7.92041 3.46046 7.93051 3.47006 7.93867C3.49246 7.95784 3.51593 7.97573 3.54036 7.99224C3.61184 8.04019 3.68843 8.07932 3.76967 8.10773C3.83877 8.13167 3.9109 8.14576 3.98392 8.14958C4.02227 8.15176 4.0594 8.15176 4.09775 8.14958C4.10678 8.1493 4.1155 8.15009 4.12453 8.14958L4.08101 8.15125H5.8017C5.70331 8.56441 5.57353 9.0508 5.39998 9.60413C5.00832 10.8529 4.41407 12.2535 3.76968 13.069C3.76548 13.0738 3.76039 13.0776 3.75628 13.0823C3.73716 13.1042 3.71928 13.1271 3.70272 13.151C3.65433 13.2229 3.61575 13.3018 3.58723 13.3836C3.56359 13.4517 3.54951 13.5226 3.54538 13.5945C3.54316 13.6332 3.54316 13.6731 3.54538 13.7117L3.55542 13.5326C3.53596 13.6442 3.53708 13.759 3.55542 13.8707C3.57364 13.987 3.61075 14.1008 3.66757 14.2038L3.67259 14.2139C3.79864 14.4338 4.01112 14.6028 4.25341 14.6775L4.04753 14.5804C4.11948 14.6288 4.1983 14.6674 4.28019 14.6959C4.34822 14.7196 4.41919 14.7336 4.49109 14.7378C4.52972 14.74 4.56963 14.74 4.60826 14.7378C4.62952 14.737 4.65074 14.7353 4.67187 14.7327C4.78013 14.7175 4.88373 14.6777 4.98152 14.6289C5.03273 14.6057 5.08552 14.5849 5.13217 14.5536C5.15603 14.537 5.17894 14.5191 5.2008 14.5C5.21048 14.4918 5.21822 14.4818 5.22758 14.4732L5.31629 14.3845C5.32487 14.3751 5.33485 14.3674 5.34307 14.3577C5.34876 14.3511 5.35434 14.3444 5.35981 14.3376C5.51105 14.1469 5.63343 13.9518 5.75483 13.7602L7.90905 12.15L9.96786 13.7033C10.1071 13.9215 10.2503 14.1386 10.4081 14.3376C10.4136 14.3444 10.4191 14.3511 10.4248 14.3577C10.433 14.3674 10.443 14.3752 10.4516 14.3845C10.487 14.4262 10.5254 14.4646 10.5671 14.5C10.5889 14.5191 10.6119 14.537 10.6357 14.5536C10.6523 14.5647 10.6721 14.5702 10.6893 14.5803C10.7612 14.6287 10.8401 14.6673 10.9219 14.6958C10.99 14.7195 11.0609 14.7336 11.1328 14.7377C11.1715 14.7399 11.2114 14.7399 11.25 14.7377C11.2713 14.7369 11.2925 14.7352 11.3136 14.7326C11.4219 14.7174 11.5255 14.6777 11.6233 14.6288C11.6745 14.6056 11.7273 14.5849 11.7739 14.5535C11.7978 14.5369 11.8207 14.5191 11.8426 14.4999C11.8692 14.4773 11.8921 14.4515 11.9162 14.4263C12.0022 14.3401 12.0687 14.236 12.1187 14.125C12.1641 14.0308 12.203 13.9323 12.2175 13.8287C12.2225 13.791 12.2248 13.753 12.2242 13.7149C12.2233 13.5638 12.1817 13.4155 12.1154 13.2797C12.0917 13.2268 12.0708 13.1721 12.0384 13.124C12.0268 13.1074 12.0145 13.0912 12.0016 13.0755C11.3502 12.2539 10.7306 10.846 10.3411 9.60407C10.1726 9.06672 10.058 8.5802 9.96116 8.15118H11.794H11.8007C11.9517 8.14993 12.1003 8.1088 12.2359 8.04245C12.2881 8.01903 12.3407 7.99733 12.3882 7.96546C12.4127 7.94895 12.4361 7.93106 12.4585 7.91189C12.4999 7.87667 12.5388 7.83779 12.574 7.7964C12.5932 7.774 12.6111 7.75053 12.6276 7.7261C12.6388 7.70943 12.6442 7.68984 12.6544 7.67254L12.7431 7.49679C12.7508 7.47826 12.7632 7.46217 12.7699 7.44322C12.7938 7.37413 12.8079 7.302 12.8117 7.22897C12.8122 7.21995 12.8114 7.21123 12.8117 7.20219V7.11515C12.8114 7.10612 12.8122 7.09739 12.8117 7.08837L12.8134 7.13189V2.87367V2.63264C12.8132 2.20284 12.4648 1.85445 12.035 1.85431H11.553C11.2068 1.85495 10.9026 2.08412 10.8064 2.41672C10.6489 2.36787 10.4717 2.32633 10.2675 2.32633H10.2642C9.96203 2.32847 9.72184 2.42746 9.52932 2.50041C9.33841 2.57274 9.19408 2.61667 9.10919 2.61925C9.01543 2.6186 8.8689 2.57891 8.68069 2.5138C8.49065 2.44806 8.26107 2.35772 7.97266 2.35311H7.97099C7.68146 2.34703 7.44751 2.43308 7.26463 2.49539C7.08197 2.55762 6.94852 2.59413 6.87295 2.59414C6.80575 2.59252 6.68992 2.5554 6.52145 2.48702C6.35225 2.41833 6.12825 2.31706 5.83518 2.32633L5.83183 2.328C5.54009 2.3393 5.31337 2.44027 5.12045 2.51714C5.10737 2.52235 5.10476 2.52054 5.092 2.52552C5.03848 2.14116 4.7101 1.8549 4.32204 1.85431H3.83998Z" fill="#EBE7E4"/>
</svg>
